X: 6057
T: Cape Town Hustle
R: reel
M: 4/4
K: Bminor
DE|FB (3BBB dBfd|ez EF EDCA,|B,z Bc defa|(3eee ef edcA|
FB (3BBB dBfd|ez EF EDCA,|G,z GA Bcdf|1 ec^AF E2:|2 ec^AF B2 ]|
DE|FB (3BBB dBGB|(3BBB dB fBdB|EB (3BBB dB gf|e2ef edcA|
FB (3BBB dBGB|(3BBB dB fBdB|EB (3BBB dB gf|e2ef edcA|
GB (3BBB dBEB|(3BBB dB fBdB|DA (3AAA dAgf|e2ef edcA|
GABc dz ^GA|Bcde e2dc|ABcd ez ^AB|cdef f2ed||

